packages/icons/svg/Fill/options.svg

<svg width="24" height="24" viewBox="0 0 24 24" fill="none" xmlns="http://www.w3.org/2000/svg">
<g id="Icon/Fill/options">
<path id="Mask" fill-rule="evenodd" clip-rule="evenodd" d="M7 14.1846V2.9996C7 2.4476 6.553 1.9996 6 1.9996C5.447 1.9996 5 2.4476 5 2.9996V14.1846C3.839 14.5986 3 15.6986 3 16.9996C3 18.3016 3.839 19.4016 5 19.8156V20.9996C5 21.5526 5.447 21.9996 6 21.9996C6.553 21.9996 7 21.5526 7 20.9996V19.8156C8.161 19.4016 9 18.3016 9 16.9996C9 15.6986 8.161 14.5986 7 14.1846ZM21 13.0001C21 11.6981 20.161 10.5991 19 10.1851V3.0001C19 2.4471 18.553 2.0001 18 2.0001C17.447 2.0001 17 2.4471 17 3.0001V10.1851C15.839 10.5991 15 11.6981 15 13.0001C15 14.3021 15.839 15.4011 17 15.8151V21.0001C17 21.5531 17.447 22.0001 18 22.0001C18.553 22.0001 19 21.5531 19 21.0001V15.8151C20.161 15.4011 21 14.3021 21 13.0001ZM12 2.0001C13.654 2.0001 15 3.3461 15 5.0001C15 6.3021 14.161 7.4011 13 7.8151V21.0001C13 21.5531 12.553 22.0001 12 22.0001C11.447 22.0001 11 21.5531 11 21.0001V7.8151C9.839 7.4011 9 6.3021 9 5.0001C9 3.3461 10.346 2.0001 12 2.0001Z" fill="#000000"/>
</g>
</svg>

<svg fill="none" height="24" viewBox="0 0 24 24" width="24" xmlns="http://www.w3.org/2000/svg"><path clip-rule="evenodd" d="m7 14.1845v-11.18499c0-.552-.447-1-1-1s-1 .448-1 1v11.18499c-1.161.414-2 1.514-2 2.815 0 1.302.839 2.402 2 2.816v1.184c0 .553.447 1 1 1s1-.447 1-1v-1.184c1.161-.414 2-1.514 2-2.816 0-1.301-.839-2.401-2-2.815zm14-1.1845c0-1.302-.839-2.401-2-2.815v-7.18499c0-.553-.447-1-1-1s-1 .447-1 1v7.18499c-1.161.414-2 1.513-2 2.815s.839 2.401 2 2.815v5.185c0 .553.447 1 1 1s1-.447 1-1v-5.185c1.161-.414 2-1.513 2-2.815zm-9-10.99999c1.654 0 3 1.346 3 3 0 1.302-.839 2.401-2 2.815v13.18499c0 .553-.447 1-1 1s-1-.447-1-1v-13.18499c-1.161-.414-2-1.513-2-2.815 0-1.654 1.346-3 3-3z" fill="#6b7280" fill-rule="evenodd"/></svg>
